X: 40822
T: Train To Harlem, The
R: reel
M: 4/4
K: Emajor
|:EEEF GBBB|AcBA FGGF|ECCE B,CEF|GcBG FEFG|
EEEF GBBB|AcBA FGGF|ECCE B,CEG|FEFG EEEF:|
|:GBBB Accc|Bege fffg|gaag fece|Bagf ecBA|
GBBB Accc|Bege fffg|gaag fece|1 Bagf eABA:|2 Bagf ecBG||

